!!!OTL: Der gefangene Husar (142), S. 317
!!!id: T0311
**kern
*clefG2
*k[f#]
*G:
{8d
=1
8g
8g
8g
8g
=2
4g
8r
8b
=3
4b
8r
8b
=4
4.a
8b
=5
8cc
8b}
8r
=6
{8d
=7
8g
8g
8g
8g
=8
4g
8r
8b
=9
4b
8r
8b
=10
4.a
8b
=11
8cc
8b}
8r
=12
{8dd
=13
8dd
8b
8b
8b
=14
4b
8r
8dd
=15
8ee
8dd
8cc
8dd
=16
4a}
8r
=17
{8d
=18
8e
8f#
8g
8g
=19
4g
4ee
=20
8dd
8ee
8dd
8cc
=21
4b}
8r
==
*-
!!!minrhy: 8
!!!meters: 2/4 ]  ZZ[4
!!!cut: Der gefangene Husar (142), S. 317
!!!reg: Luxemburg
!!!trd: Singendes Volk, Esch-Alzette 1937, posth.
!!!rhy1: X  XXXX  X_0X  X_0X  X_.X  XX0
!!!rhy2: X  XXXX  X_0X  X_0X  X_.X  XX0
!!!key: T0311  08  G 2/4 ]  ZZ[4
!!!mod: HEPTATONIK IONISCH]  AMBITUS[9
!!!kad: 3323
!!!akz: 11324_11324_5362_-6153_
!!!fot: 'a__a__b__c__
!!!for: 'a__a__b__c__
!!!fok: '/__/__Sd_^a_
!! PHRAS[AUFTAKTIG]
!!!fkt: historische, Kriegs- und Soldatenlieder
!!!bem: Rammeldingen, hhh J.P. Gloden, 26.12.1932
!! THILL, Mathias:
!! PR[30] 2K[2] 2G[4] 3K[5] 3G[13] 4A[7] 4Ü[0] 5A[2] 6K[0] 6G[0]
!! 7K[0] 7G[0] 8A[0] MEHR[0] SI[32] ABS[56] SR[5] SP[27]
!! ST[16] 2k[7] 2g[16] 3k[2] 3g[9] 4d[0] 4ü[0] 5d[2] 6k[0] 6g[0]
!! 7k[0] 7g[0] 8d[2] mehr[0] si[38] dm[-6] sr[23] sp[14]
!! 1F[58] 2F[29] 3F[0] 4F[0] LF[0] 2P[13] 3P[0] 4P[0] TRI[0] DF[3] AB[62]
!! TF[0] U3K[0] U3[0] U4[0] U4Ü[0] U5[5] U6K[0] U6[0] U7K[0] U7[0]
!! N1[25] N2K[0] N2[9] N3K[0] N3[23] N4[11] N4Ü[0] N5[19] N6K[0] N6[7]
!!!n7k: 0] N7[0] O1[2] O2K[0] O2[0] O3K[0] O3[0] HÖ[0
